X:23
T:23 The Camp
C:Welch MS
N:Drop of 7th followed by leap of 10th as in STB. 
I:abc2nwc
M:2/4
L:1/16
K:D
A2|d3fd2f2|gfed dcBA|d3fd2f2|a2a2a3A|
d3fd2f2|gfed dcBA|B2g2e2c2|d6:|
cd|e2c2f2d2|g2e2a2e2|B4c2d2|cdcB A2Bc|
e2c2f2d2|g2e2a2f2|G3b agfe|d4d2:|

